assets/awsec2ami/original.svg

<svg height="48" viewBox="0 0 48 48" width="48" xmlns="http://www.w3.org/2000/svg"><path d="m30.143 37.727h8.456v-11.071h-8.456zm-20.914 0h8.457v-11.071h-8.457zm10.457 0h8.457v-11.071h-8.457zm19.913-13.071h-31.37a1 1 0 0 0 -1 1v13.071a1 1 0 0 0 1 1h31.37a1 1 0 0 0 1-1v-13.071a1 1 0 0 0 -1-1m-9.456-5.228h8.456v-8.457h-8.456zm-20.914 0h8.457v-8.457h-8.457zm10.457 0h8.457v-8.457h-8.457zm19.913-10.457h-31.37a1 1 0 0 0 -1 1v10.457a1 1 0 0 0 1 1h31.37a1 1 0 0 0 1-1v-10.457a1 1 0 0 0 -1-1m4.228 30.408a4.45 4.45 0 0 1 -4.447 4.448h-30.932a4.453 4.453 0 0 1 -4.448-4.448v-30.931a4.453 4.453 0 0 1 4.448-4.448h30.932a4.45 4.45 0 0 1 4.447 4.448zm-4.447-37.379h-30.932a6.455 6.455 0 0 0 -6.448 6.448v30.931a6.456 6.456 0 0 0 6.448 6.448h30.932a6.455 6.455 0 0 0 6.447-6.448v-30.931a6.454 6.454 0 0 0 -6.447-6.448" fill="#ed7100" fill-rule="evenodd"/></svg>

<svg xmlns="http://www.w3.org/2000/svg" width="48" height="48" viewBox="0 0 48 48"><title>Icon-Resource/Compute/Res_Amazon-EC2_AMI_48</title><g id="Icon-Resource/Compute/Res_Amazon-EC2_AMI_48" fill="none" fill-rule="evenodd" stroke="none" stroke-width="1"><path id="Amazon-Containers-AMI_Resource-Icon_light-bg" fill="#ed7100" d="M30.143 37.727h8.456V26.656h-8.456zm-20.914 0h8.457V26.656H9.229zm10.457 0h8.457V26.656h-8.457zm19.913-13.071H8.229a1 1 0 0 0-1 1v13.071a1 1 0 0 0 1 1h31.37a1 1 0 0 0 1-1V25.656a1 1 0 0 0-1-1m-9.456-5.228h8.456v-8.457h-8.456zm-20.914 0h8.457v-8.457H9.229zm10.457 0h8.457v-8.457h-8.457zM39.599 8.971H8.229a1 1 0 0 0-1 1v10.457a1 1 0 0 0 1 1h31.37a1 1 0 0 0 1-1V9.971a1 1 0 0 0-1-1m4.228 30.408a4.45 4.45 0 0 1-4.447 4.448H8.448A4.453 4.453 0 0 1 4 39.379V8.448A4.453 4.453 0 0 1 8.448 4H39.38a4.45 4.45 0 0 1 4.447 4.448zM39.38 2H8.448A6.455 6.455 0 0 0 2 8.448v30.931a6.456 6.456 0 0 0 6.448 6.448H39.38a6.455 6.455 0 0 0 6.447-6.448V8.448A6.454 6.454 0 0 0 39.38 2"/></g></svg>
